Educa/src/img/int-card01.svg

<svg width="112" height="54" viewBox="0 0 112 54" fill="none" xmlns="http://www.w3.org/2000/svg">
<rect x="0.294189" y="0.105469" width="111.456" height="53.156" rx="4.28678" fill="white"/>
<rect x="47.4488" y="30.9703" width="53.156" height="3.42942" fill="#ECEFF6"/>
<rect x="47.4488" y="19.8247" width="30.8648" height="3.42942" fill="#ECEFF6"/>
<circle cx="26.4435" cy="27.1122" r="14.1464" fill="#00D9FF"/>
<g clip-path="url(#clip0_103_256)">
<path d="M29.8086 24.9593L26.8388 25.6088L28.2909 20.5239C28.417 20.0819 27.8261 19.7988 27.5611 20.1752L21.7686 28.4049C21.5508 28.7144 21.8347 29.1297 22.202 29.0392L24.8482 28.3878L23.4008 33.4776C23.2761 33.9161 23.8567 34.1956 24.1248 33.834L30.2257 25.6043C30.4508 25.3005 30.1779 24.8786 29.8086 24.9593ZM24.8047 31.5395L25.8302 27.9329C25.916 27.6314 25.6439 27.3471 25.3377 27.4225L23.0701 27.9807L26.8364 22.6298L25.8616 26.0434C25.7768 26.3405 26.0399 26.6232 26.3436 26.5567L28.9154 25.9943L24.8047 31.5395Z" fill="white"/>
<path d="M29.5438 31.5392L28.5596 31.5228L29.0823 30.4947C29.185 30.2927 29.1046 30.0458 28.9027 29.9432C28.7007 29.8405 28.4538 29.921 28.3512 30.1229L27.5309 31.736C27.3641 32.0632 27.5825 32.2776 27.897 32.3321L28.8789 32.3485L28.35 33.4063C28.2487 33.6089 28.3308 33.8553 28.5334 33.9566C28.7364 34.0581 28.9825 33.9754 29.0836 33.7732L29.9038 32.1327C30.0385 31.8632 29.8436 31.5436 29.5438 31.5392Z" fill="white"/>
<path d="M23.1585 20.0444C22.9559 19.9431 22.7095 20.0252 22.6082 20.2278L21.788 21.8683C21.6546 22.1351 21.8448 22.4618 22.1572 22.4618H23.1317L22.6082 23.5088C22.5069 23.7114 22.5891 23.9577 22.7916 24.059C22.9946 24.1605 23.2408 24.0778 23.3419 23.8756L24.1621 22.2351C24.2986 21.9622 24.0979 21.6416 23.7953 21.6416H22.8184L23.3419 20.5947C23.4432 20.3921 23.361 20.1457 23.1585 20.0444Z" fill="white"/>
</g>
<defs>
<clipPath id="clip0_103_256">
<rect width="14" height="14" fill="white" transform="translate(19 20)"/>
</clipPath>
</defs>
</svg>

<svg xmlns="http://www.w3.org/2000/svg" width="112" height="54" fill="none" xmlns:v="https://vecta.io/nano"><rect x=".294" y=".105" width="111.456" height="53.156" rx="4.287" fill="#fff"/><path d="M47.449 30.97h53.156v3.43H47.449zm0-11.145h30.865v3.429H47.449z" fill="#eceff6"/><circle cx="26.444" cy="27.112" r="14.146" fill="#00d9ff"/><g clip-path="url(#A)" fill="#fff"><path d="M29.809 24.959l-2.97.649 1.452-5.085c.126-.442-.465-.725-.73-.349l-5.792 8.23a.41.41 0 0 0 .433.634l2.646-.651-1.447 5.09c-.125.438.456.718.724.356l6.101-8.23c.225-.304-.048-.726-.417-.645zm-5.004 6.58l1.026-3.607a.41.41 0 0 0-.492-.51l-2.268.558 3.766-5.351-.975 3.414a.41.41 0 0 0 .482.513l2.572-.562-4.111 5.545zm4.739 0l-.984-.016.523-1.028a.41.41 0 1 0-.731-.372l-.82 1.613c-.167.327.052.542.366.596l.982.016-.529 1.058a.41.41 0 1 0 .734.367l.82-1.641a.41.41 0 0 0-.36-.593zm-6.385-11.495a.41.41 0 0 0-.55.183l-.82 1.641a.41.41 0 0 0 .369.593h.974l-.523 1.047a.41.41 0 1 0 .734.367l.82-1.64a.41.41 0 0 0-.367-.593h-.977l.523-1.047a.41.41 0 0 0-.183-.55z"/></g><defs><clipPath id="A"><path fill="#fff" transform="translate(19 20)" d="M0 0h14v14H0z"/></clipPath></defs></svg>
